X:28
T:Scarborough Fair
O:English
M:3/4
L:1/4
K:D
E2E|BAB|F>GF|E3|EBd|e2d|BcA|B3|B z B|!
e2e|G2A|BAG|E2D|E2B|A2G|FED|E3E||
